X:6346
T:Sur les remparts de St Malo - An dro
O:england
C:Loffet 2
M:4/4
L:1/4
K:G
BB/A/ GD|GA B/c/ d|BB/A/ GD|GA B2:|\
|:BB/A/ dd| BG A2|BB/A/ dd|BA G2:|


